X:1
T:Partition sans titre
C:Compositeur / Arrangeur
L:1/8
M:4/4
I:linebreak $
K:D
V:1 treble nm="Violon" snm="Vln."
V:1
"D" D2 FD"A" EDCE |"D" DABc"G" dcBA |"D" d2 fa gfed |"A" cdec AGEC |"D" D2 FD"A" EDCE | %5
"D" DABc"G" dcBA |"D" d2 fa gfed |1"A" cdec"D" d2 PE2 :|2"A" cdec"D" d2 (3ABc |:"D" d2 fd ccfc | %10
 BBfB AAFA |"G" G2 EG"D" FAdf | afdf eb z b |"G" bagf e2 Pb2 |"D" abag fdfa |"G" gage"A" cABc |1 %16
"D" dBAF D2 (3ABc :|2"D" dBAF D2 PE2 |] %18
